X:2381
T:Greencoats
O:england
M:4/4
C:
S:
N:c.f. The Rose Tree (Bampton)
A:Seabright
R:Reel
%P:A.(AB)$^5$
P:A.(AB)5
K:D
I:speed 400
P:A
fe | d2 B2 A2 FG | AB AF  A2 FA | d2 cd e2 de | f2 e2 eg \
fe | d2 B2 A2 FG | AB AF  A2 FA | d2 cd e2 de | f2 d2 d2 ||\
P:B
e2 | f2 e2 f2 g2 | a2 a2  g2 f2 | e2 b2 b3  a | b2 e2 eg \
fe | d2 B2 A2 FG | AB AF  A2 FA | d2 cd e2 de | f2 d2 d2 ||


